static/images/endpoint@3x.svg

<svg height="102" viewBox="0 0 102 102" width="102" xmlns="http://www.w3.org/2000/svg" xmlns:xlink="http://www.w3.org/1999/xlink"><defs><circle id="a" cx="58" cy="45" r="35"/><filter id="b" height="174.3%" width="174.3%" x="-37.1%" y="-31.4%"><feOffset dy="4" in="SourceAlpha" result="shadowOffsetOuter1"/><feGaussianBlur in="shadowOffsetOuter1" result="shadowBlurOuter1" stdDeviation="8"/><feColorMatrix in="shadowBlurOuter1" values="0 0 0 0 0.254901961 0 0 0 0 0.458823529 0 0 0 0 0.647058824 0 0 0 0.24 0"/></filter><linearGradient id="c" x1="0%" x2="149.461%" y1="0%" y2="71.875%"><stop offset="0" stop-color="#00eaf8"/><stop offset="1" stop-color="#6d42ef"/></linearGradient></defs><g fill="none" fill-rule="evenodd" transform="translate(-7 2)"><g fill-rule="nonzero"><use fill="#000" filter="url(#b)" xlink:href="#a"/><use fill="#fff" fill-rule="evenodd" xlink:href="#a"/></g><path d="m78.9818326 52.2973543c-.8119839-.3010225-1.7169288.1047953-2.0214762.9055995l-2.0921951 5.4967552-6.3339016-19.2318209c2.1954217-1.2662638 3.6745298-3.6155053 3.6745298-6.3003727 0-4.022167-3.3168007-7.2944503-7.3938293-7.2944503-.6870852 0-1.351643.0949487-1.9834078.2686696l-7.9708439-5.8364605c-.6963528-.5099096-1.6795733-.3662909-2.1962773.3207156-.516704.6868658-.3711315 1.6568897.3249361 2.1667993l4.5810432 3.3542909h-19.9941931c-.718595-3.2850839-3.6849381-5.7547343-7.2264423-5.7547343-3.8213856 0-6.9750766 2.8750462-7.3551906 6.5479426l-8.4376455 4.5042249c-.7625092.4070837-1.0462401 1.3470054-.6336183 2.0992803s1.3653305 1.0319164 2.1278396.625114l5.6952932-3.0403272-6.6002381 20.0407837c-.2473735-.024757-.498454-.0374168-.7522435-.0374168-4.0771712-.0001407-7.3939719 3.2722833-7.3939719 7.2944502 0 3.1731147 2.06496259 5.8780973 4.938202 6.8792081l3.2593416 9.1223882c.2274125.6363672.8335132 1.0343077 1.4806764 1.0343077.1730901 0 .3494596-.0285549.5218369-.0886188.8176869-.284424 1.2469904-1.1689238.9586969-1.9756359l-1.789216-5.0073827 15.7791486 11.310428c-.422032.9168526-.6589972 1.9335772-.6589972 3.0044577 0 4.022167 3.3168007 7.2944503 7.3938293 7.2944503 2.1184295 0 4.0302629-.8850624 5.379482-2.2981802l9.8217965.6065463c.9217691.0030946 1.6128465-.6283493 1.6650302-1.4491279.0541798-.8536942-.6033917-1.5890893-1.4686998-1.6425419l-6.0685633-.3748715 17.0717641-12.2368458c1.3055902 1.1419162 3.0209506 1.8372219 4.8987078 1.8372219 4.076886 0 7.3936867-3.2722834 7.3936867-7.2944503 0-1.4073505-.4072038-2.7224249-1.1099727-3.8381775l3.4324318-9.0182964c.3051177-.8002416-.1056506-1.6933219-.9173492-1.9939224zm-9.912904-19.1301203c0 2.3140753-1.9084116 4.1968726-4.254111 4.1968726s-4.2541109-1.8827973-4.2541109-4.1968726c0-2.3140752 1.9084115-4.1968725 4.2541109-4.1968725s4.254111 1.8827973 4.254111 4.1968725zm-38.7192961-9.6773105c2.3455568 0 4.2541109 1.8827972 4.2541109 4.1968725 0 2.3142159-1.9084115 4.1970132-4.2541109 4.1970132s-4.2539683-1.8827973-4.2539683-4.1970132c.0001425-2.3140753 1.9084115-4.1968725 4.2539683-4.1968725zm-6.2342394 10.4693936.9002399 4.3338799c.1524163.7330039.8062807 1.2382715 1.536282 1.2381309.1043673 0 .2107308-.0104092.3169517-.0319309.8493394-.1717516 1.3966977-.9902796 1.2227521-1.8282194l-.684091-3.293805c.9022359.387672 1.8968627.6040143 2.9421047.6040143 3.5349456 0 6.8991719-2.7282734 7.6246107-6.004214h19.050476l-4.0352093 3.574231c-.6962102.5099096-.8416402 1.4799335-.3249361 2.1667993.3079693.409475.7817572.6258174 1.2618186.6258174.3250787 0 .6532941-.0993093.9344586-.3051018l2.5604225-1.8747794c0 4.0254023 3.3168007 7.2976856 7.3938293 7.2976856.247516 0 .4921805-.0125192.7334231-.0361508l6.1492627 18.6715533-4.2456988-3.2046236c-.6886535-.5196155-1.6738701-.3903446-2.2008398.289066-.5266845.6792699-.3957975 1.6515444.2929986 2.1713005l2.4293929 1.8337053c-3.000847.9292311-5.1838645 3.6983568-5.1838645 6.9614969 0 1.0531567.229266 2.0542675.6383234 2.9593043l-16.3397668 11.7121664 1.8063254-4.786961c.3025513-.8016482-.110926-1.6934625-.9237653-1.9918124-.8121264-.2984905-1.716501.1094372-2.0189098.9112261l-.9859294 2.6128471c-1.3356742-1.9033343-3.5631761-3.1535623-6.0821083-3.1535623-1.8596497 0-3.5598968.6823645-4.8604967 1.8047283l-16.2458077-11.64521 5.9128678-.263043c.8663062-.0385421 1.5365671-.7625434 1.4976432-1.6169409-.0390665-.8546789-.7730599-1.5163657-1.6389384-1.4775422l-2.9228567.1299742c.7339935-1.1324917 1.1614435-2.4761211 1.1614435-3.9170904 0-2.6782563-1.4715514-5.0225745-3.6579908-6.2910889zm-9.7215638 20.2702078c2.3455568 0 4.2539684 1.8827973 4.2539684 4.1968725 0 2.3140753-1.908269 4.1968726-4.2539684 4.1968726s-4.2541109-1.8827973-4.2541109-4.1968726c0-2.3140752 1.9084115-4.1968725 4.2541109-4.1968725zm24.4901169 32.6728973c-2.3455568 0-4.2541109-1.8827972-4.2541109-4.1968725 0-2.3140752 1.9084115-4.1968725 4.2541109-4.1968725s4.2539684 1.8827973 4.2539684 4.1968725c0 2.3140753-1.9084115 4.1968725-4.2539684 4.1968725zm31.2995175-15.5575177c-2.3455568 0-4.2541109-1.8827973-4.2541109-4.1968726 0-2.3142159 1.9084115-4.1970132 4.2541109-4.1970132s4.2539684 1.8827973 4.2539684 4.1970132c-.0001426 2.3140753-1.9084116 4.1968726-4.2539684 4.1968726z" fill="url(#c)"/></g></svg>

<svg xmlns="http://www.w3.org/2000/svg" width="102" height="102" viewBox="0 0 102 102" xmlns:xlink="http://www.w3.org/1999/xlink">
  <defs>
    <circle id="b" cx="58" cy="45" r="35"/>
    <filter id="a" width="174.3%" height="174.3%" x="-37.1%" y="-31.4%" filterUnits="objectBoundingBox">
      <feOffset dy="4" in="SourceAlpha" result="shadowOffsetOuter1"/>
      <feGaussianBlur stdDeviation="8" in="shadowOffsetOuter1" result="shadowBlurOuter1"/>
      <feColorMatrix values="0 0 0 0 0.254901961 0 0 0 0 0.458823529 0 0 0 0 0.647058824 0 0 0 0.24 0" in="shadowBlurOuter1"/>
    </filter>
    <linearGradient id="c" x1="0%" x2="149.461%" y1="0%" y2="71.875%">
      <stop stop-color="#00EAF8" offset="0%"/>
      <stop stop-color="#6D42EF" offset="100%"/>
    </linearGradient>
  </defs>
  <g fill="none" fill-rule="evenodd" transform="translate(-7 2)">
    <g fill-rule="nonzero">
      <use fill="black" filter="url(#a)" xlink:href="#b"/>
      <use fill="#FFFFFF" fill-rule="evenodd" xlink:href="#b"/>
    </g>
    <path fill="url(#c)" d="M78.9818326,52.2973543 C78.1698487,51.9963318 77.2649038,52.4021496 76.9603564,53.2029538 L74.8681613,58.699709 L68.5342597,39.4678881 C70.7296814,38.2016243 72.2087895,35.8523828 72.2087895,33.1675154 C72.2087895,29.1453484 68.8919888,25.8730651 64.8149602,25.8730651 C64.127875,25.8730651 63.4633172,25.9680138 62.8315524,26.1417347 L54.8607085,20.3052742 C54.1643557,19.7953646 53.1811352,19.9389833 52.6644312,20.6259898 C52.1477272,21.3128556 52.2932997,22.2828795 52.9893673,22.7927891 L57.5704105,26.14708 L37.5762174,26.14708 C36.8576224,22.8619961 33.8912793,20.3923457 30.3497751,20.3923457 C26.5283895,20.3923457 23.3746985,23.2673919 22.9945845,26.9402883 L14.556939,31.4445132 C13.7944298,31.8515969 13.5106989,32.7915186 13.9233207,33.5437935 C14.3359425,34.2960684 15.2886512,34.5757099 16.0511603,34.1689075 L21.7464535,31.1285803 L15.1462154,51.169364 C14.8988419,51.144607 14.6477614,51.1319472 14.3939719,51.1319472 C10.3168007,51.1318065 7,54.4042305 7,58.4263974 C7,61.5995121 9.06496259,64.3044947 11.938202,65.3056055 L15.1975436,74.4279937 C15.4249561,75.0643609 16.0310568,75.4623014 16.67822,75.4623014 C16.8513101,75.4623014 17.0276796,75.4337465 17.2000569,75.3736826 C18.0177438,75.0892586 18.4470473,74.2047588 18.1587538,73.3980467 L16.3695378,68.390664 L32.1486864,79.701092 C31.7266544,80.6179446 31.4896892,81.6346692 31.4896892,82.7055497 C31.4896892,86.7277167 34.8064899,90 38.8835185,90 C41.001948,90 42.9137814,89.1149376 44.2630005,87.7018198 L54.084797,88.3083661 C55.0065661,88.3114607 55.6976435,87.6800168 55.7498272,86.8592382 C55.804007,86.005544 55.1464355,85.2701489 54.2811274,85.2166963 L48.2125641,84.8418248 L65.2843282,72.604979 C66.5899184,73.7468952 68.3052788,74.4422009 70.183036,74.4422009 C74.259922,74.4422009 77.5767227,71.1699175 77.5767227,67.1477506 C77.5767227,65.7404001 77.1695189,64.4253257 76.46675,63.3095731 L79.8991818,54.2912767 C80.2042995,53.4910351 79.7935312,52.5979548 78.9818326,52.2973543 Z M69.0689286,33.167234 C69.0689286,35.4813093 67.160517,37.3641066 64.8148176,37.3641066 C62.4691182,37.3641066 60.5607067,35.4813093 60.5607067,33.167234 C60.5607067,30.8531588 62.4691182,28.9703615 64.8148176,28.9703615 C67.160517,28.9703615 69.0689286,30.8531588 69.0689286,33.167234 Z M30.3496325,23.4899235 C32.6951893,23.4899235 34.6037434,25.3727207 34.6037434,27.686796 C34.6037434,30.0010119 32.6953319,31.8838092 30.3496325,31.8838092 C28.0039331,31.8838092 26.0956642,30.0010119 26.0956642,27.686796 C26.0958067,25.3727207 28.0040757,23.4899235 30.3496325,23.4899235 Z M24.1153931,33.9593171 L25.015633,38.293197 C25.1680493,39.0262009 25.8219137,39.5314685 26.551915,39.5313279 C26.6562823,39.5313279 26.7626458,39.5209187 26.8688667,39.499397 C27.7182061,39.3276454 28.2655644,38.5091174 28.0916188,37.6711776 L27.4075278,34.3773726 C28.3097637,34.7650446 29.3043905,34.9813869 30.3496325,34.9813869 C33.8845781,34.9813869 37.2488044,32.2531135 37.9742432,28.9771729 L57.0247192,28.9771729 L52.9895099,32.5514039 C52.2932997,33.0613135 52.1478697,34.0313374 52.6645738,34.7182032 C52.9725431,35.1276782 53.446331,35.3440206 53.9263924,35.3440206 C54.2514711,35.3440206 54.5796865,35.2447113 54.860851,35.0389188 L57.4212735,33.1641394 C57.4212735,37.1895417 60.7380742,40.461825 64.8151028,40.461825 C65.0626188,40.461825 65.3072833,40.4493058 65.5485259,40.4256742 L71.6977886,59.0972275 L67.4520898,55.8926039 C66.7634363,55.3729884 65.7782197,55.5022593 65.25125,56.1816699 C64.7245655,56.8609398 64.8554525,57.8332143 65.5442486,58.3529704 L67.9736415,60.1866757 C64.9727945,61.1159068 62.789777,63.8850325 62.789777,67.1481726 C62.789777,68.2013293 63.019043,69.2024401 63.4281004,70.1074769 L47.0883336,81.8196433 L48.894659,77.0326823 C49.1972103,76.2310341 48.783733,75.3392198 47.9708937,75.0408699 C47.1587673,74.7423794 46.2543927,75.1503071 45.9519839,75.952096 L44.9660545,78.5649431 C43.6303803,76.6616088 41.4028784,75.4113808 38.8839462,75.4113808 C37.0242965,75.4113808 35.3240494,76.0937453 34.0234495,77.2161091 L17.7776418,65.5708991 L23.6905096,65.3078561 C24.5568158,65.269314 25.2270767,64.5453127 25.1881528,63.6909152 C25.1490863,62.8362363 24.4150929,62.1745495 23.5492144,62.213373 L20.6263577,62.3433472 C21.3603512,61.2108555 21.7878012,59.8672261 21.7878012,58.4262568 C21.7878012,55.7480005 20.3162498,53.4036823 18.1298104,52.1351679 L24.1153931,33.9593171 Z M14.3938293,54.2295249 C16.7393861,54.2295249 18.6477977,56.1123222 18.6477977,58.4263974 C18.6477977,60.7404727 16.7395287,62.62327 14.3938293,62.62327 C12.0481299,62.62327 10.1397184,60.7404727 10.1397184,58.4263974 C10.1397184,56.1123222 12.0481299,54.2295249 14.3938293,54.2295249 Z M38.8839462,86.9024222 C36.5383894,86.9024222 34.6298353,85.019625 34.6298353,82.7055497 C34.6298353,80.3914745 36.5382468,78.5086772 38.8839462,78.5086772 C41.2296456,78.5086772 43.1379146,80.3914745 43.1379146,82.7055497 C43.1379146,85.019625 41.2295031,86.9024222 38.8839462,86.9024222 Z M70.1834637,71.3449045 C67.8379069,71.3449045 65.9293528,69.4621072 65.9293528,67.1480319 C65.9293528,64.833816 67.8377643,62.9510187 70.1834637,62.9510187 C72.5291631,62.9510187 74.4374321,64.833816 74.4374321,67.1480319 C74.4372895,69.4621072 72.5290205,71.3449045 70.1834637,71.3449045 Z"/>
  </g>
</svg>
